images/open-source/refind.svg

<?xml version="1.0" encoding="UTF-8" standalone="no"?>
<!-- Created with Inkscape (http://www.inkscape.org/) -->

<svg
   xmlns:dc="http://purl.org/dc/elements/1.1/"
   xmlns:cc="http://creativecommons.org/ns#"
   xmlns:rdf="http://www.w3.org/1999/02/22-rdf-syntax-ns#"
   xmlns:svg="http://www.w3.org/2000/svg"
   xmlns="http://www.w3.org/2000/svg"
   xmlns:sodipodi="http://sodipodi.sourceforge.net/DTD/sodipodi-0.dtd"
   xmlns:inkscape="http://www.inkscape.org/namespaces/inkscape"
   width="54.831303mm"
   height="18.061392mm"
   viewBox="0 0 194.28414 63.997057"
   id="svg4170"
   version="1.1"
   inkscape:version="0.91 r13725"
   sodipodi:docname="refind.svg">
  <defs
     id="defs4172" />
  <sodipodi:namedview
     id="base"
     pagecolor="#ffffff"
     bordercolor="#666666"
     borderopacity="1.0"
     inkscape:pageopacity="0.0"
     inkscape:pageshadow="2"
     inkscape:zoom="9.1957926"
     inkscape:cx="98.855488"
     inkscape:cy="52.093087"
     inkscape:document-units="px"
     inkscape:current-layer="layer1"
     showgrid="false"
     fit-margin-top="0"
     fit-margin-left="0"
     fit-margin-right="0"
     fit-margin-bottom="0"
     inkscape:window-width="3200"
     inkscape:window-height="1688"
     inkscape:window-x="0"
     inkscape:window-y="60"
     inkscape:window-maximized="1" />
  <metadata
     id="metadata4175">
    <rdf:RDF>
      <cc:Work
         rdf:about="">
        <dc:format>image/svg+xml</dc:format>
        <dc:type
           rdf:resource="http://purl.org/dc/dcmitype/StillImage" />
        <dc:title></dc:title>
      </cc:Work>
    </rdf:RDF>
  </metadata>
  <g
     inkscape:label="Layer 1"
     inkscape:groupmode="layer"
     id="layer1"
     transform="translate(2.6815649e-8,-988.36515)">
    <path
       style="fill:#333333;fill-opacity:1;stroke:none;stroke-width:0.96866494;stroke-opacity:1"
       mask="none"
       d="M 23.611328 0.48242188 L 23.611328 0.484375 C 21.933892 0.470075 20.240044 0.63199625 18.601562 0.97265625 C 10.326545 2.6931262 3.4791275 9.0838419 1.2480469 17.169922 C 0.60478544 19.501322 0.48444087 20.479356 0.48632812 23.347656 C 0.48821513 26.215756 0.59203899 27.058238 1.2382812 29.398438 C 3.7611671 38.534037 11.88391 45.2387 21.427734 46.0625 C 24.676199 46.3429 27.968246 45.8981 31.044922 44.8125 L 30.619141 45.044922 L 40.3125 61.523438 L 40.335938 61.511719 C 40.904544 62.692619 42.097724 63.464319 43.429688 63.511719 C 45.394045 63.580719 47.046207 62.08035 47.121094 60.15625 L 43.558594 60.023438 L 47.121094 60.128906 C 47.141594 59.417006 46.938806 58.717094 46.541016 58.121094 L 46.556641 58.111328 L 36.925781 41.740234 C 37.251186 41.505834 37.573331 41.265472 37.886719 41.013672 C 41.417494 38.176372 44.183122 34.029806 45.439453 29.691406 C 46.17774 26.952806 46.105469 24.523438 46.105469 24.523438 C 46.069089 22.870238 44.625327 21.531162 42.818359 21.476562 C 41.031778 21.425562 39.304153 22.093394 39.033203 24.558594 L 38.966797 25.080078 C 38.576496 28.857778 36.466833 32.785934 33.507812 35.240234 C 30.416089 37.804634 26.740448 39.045784 22.683594 38.896484 C 19.965673 38.796484 17.55027 38.102297 15.3125 36.779297 C 11.540822 34.549297 8.8210329 30.823837 7.9140625 26.648438 C 6.6799364 20.966937 8.7021801 14.971023 13.076172 11.351562 C 15.74221 9.1454325 18.598736 7.9813419 22.099609 7.6699219 C 26.131634 7.3112519 30.35724 8.6756169 33.564453 11.373047 L 34.238281 11.939453 L 30.527344 15.429688 L 45.335938 18.138672 L 42.355469 3.9179688 L 39.353516 6.8632812 L 38.5625 6.1796875 C 35.60972 3.6260475 32.309348 1.9427706 28.521484 1.0566406 C 26.948174 0.68858062 25.288764 0.49673188 23.611328 0.48242188 z M 137.4043 6.5644531 C 135.47512 6.5644531 134.26925 7.6672256 133.93164 9.7285156 L 129.54297 35.804688 C 129.49477 36.140288 129.44531 36.476072 129.44531 36.763672 C 129.44531 38.441472 130.36214 39.353516 132.00195 39.353516 C 134.31697 39.353516 135.23391 38.297388 135.66797 35.804688 L 140.10547 9.7285156 C 140.15367 9.4888256 140.1543 9.2494556 140.1543 9.0097656 C 140.1543 7.4757856 139.18879 6.5644531 137.4043 6.5644531 z M 86.664062 6.7070312 C 83.287983 6.7070312 82.17761 7.4753425 81.695312 10.351562 L 77.5 35.087891 C 77.40354 35.567291 77.402344 35.948531 77.402344 36.332031 C 77.402344 38.633031 78.946503 39.257812 82.033203 39.257812 L 95.054688 39.257812 C 97.707316 39.257812 99.298828 37.913888 99.298828 35.804688 C 99.298828 34.318688 98.238533 33.503906 96.212891 33.503906 L 83.914062 33.503906 L 85.84375 21.855469 L 97.417969 21.855469 C 100.40821 21.855469 101.75781 20.945334 101.75781 18.740234 C 101.75781 17.110334 100.79457 16.439453 98.720703 16.439453 L 86.759766 16.439453 L 87.482422 12.316406 L 98.914062 12.316406 C 101.95253 12.316406 103.44727 11.308439 103.44727 9.1992188 C 103.44727 7.3776188 102.434 6.7070312 100.26367 6.7070312 L 86.664062 6.7070312 z M 113.69922 6.7070312 C 110.32315 6.7070312 109.21276 7.4753425 108.73047 10.351562 L 104.38867 35.804688 C 104.34047 36.140288 104.29297 36.429197 104.29297 36.716797 C 104.29297 38.442597 105.25652 39.353516 107.04102 39.353516 C 109.16313 39.353516 110.08156 38.201588 110.51562 35.804688 L 112.87891 21.855469 L 122.33008 21.855469 C 125.32032 21.855469 126.7207 20.945334 126.7207 18.740234 C 126.7207 17.110334 125.70669 16.439453 123.63281 16.439453 L 113.79492 16.439453 L 114.51758 12.316406 L 124.06641 12.316406 C 127.10487 12.316406 128.64844 11.308439 128.64844 9.1992188 C 128.64844 7.3776188 127.63714 6.7070312 125.4668 6.7070312 L 113.69922 6.7070312 z "
       transform="translate(-7.6562102e-6,988.36515)"
       id="path13770" />
    <path
       style="color:#bebebe;clip-rule:nonzero;display:inline;overflow:visible;visibility:visible;opacity:1;isolation:auto;mix-blend-mode:normal;color-interpolation:sRGB;color-interpolation-filters:linearRGB;solid-color:#000000;solid-opacity:1;fill:#333333;fill-opacity:1;fill-rule:nonzero;stroke:none;stroke-width:1;stroke-linecap:butt;stroke-linejoin:miter;stroke-miterlimit:4;stroke-dasharray:none;stroke-dashoffset:0;stroke-opacity:1;marker:none;color-rendering:auto;image-rendering:auto;shape-rendering:auto;text-rendering:auto;enable-background:accumulate"
       d="m 191.67969,5.8925781 c -1.73627,0 -2.89287,1.006525 -3.23047,2.828125 l -1.1582,6.4238279 -0.38672,0 c -4.58181,0 -8.29582,0.864144 -11.04492,2.589844 -4.63005,2.8762 -7.47461,7.8604 -7.47461,12.75 0,3.1159 1.25333,5.705209 3.56835,7.287109 1.78451,1.1984 4.53481,1.486328 8.44141,1.486328 l 6.125,0 c 1.73626,0 2.74833,-0.959453 3.08594,-2.876953 l 4.63086,-27.4199215 c 0.0482,-0.28762 0.0469,-0.5278981 0.0469,-0.7675781 0,-1.48604 -0.91547,-2.3007813 -2.60351,-2.3007813 z M 74.003906,14.857422 c -2.170331,0 -4.00352,0.910822 -5.546875,2.732422 l 0,-0.28711 C 68.457031,15.577034 67.68577,15 66.287109,15 64.357926,15 63.34542,15.912284 63.007812,18.021484 L 60.017578,36.09375 c -0.04823,0.2876 -0.04883,0.526025 -0.04883,0.765625 0,1.582 0.916837,2.541016 2.556641,2.541016 1.832729,0 2.84463,-1.101541 3.230468,-3.306641 l 1.591797,-9.205078 c 0.675216,-3.9788 1.109814,-5.847994 4.292969,-6.183594 1.205743,-0.1438 2.652882,0.144978 3.955078,-0.669922 0.916365,-0.5753 1.447266,-1.487243 1.447266,-2.589844 0,-1.725699 -1.013416,-2.58789 -3.039063,-2.58789 z m 83.791014,0.04883 c -2.45971,0 -4.77602,0.958625 -7.1875,2.828125 0.0482,-0.1917 0.0488,-0.383544 0.0488,-0.527344 0,-1.4382 -0.91563,-2.253906 -2.45898,-2.253906 -2.07388,0 -3.137,0.911259 -3.47461,3.068359 l -3.03711,18.072266 c -0.0482,0.2877 -0.0488,0.526025 -0.0488,0.765625 0,1.582 0.96371,2.541016 2.60351,2.541016 1.83273,0 2.8466,-1.101541 3.23243,-3.306641 l 1.6875,-9.875 c 0.67521,-3.9308 3.03934,-6.183594 6.36718,-6.183594 2.36326,0 3.51954,1.102666 3.51954,3.259766 0,0.4315 -0.0473,1.245156 -0.24024,2.347656 l -1.6875,10.451172 c -0.0482,0.2397 -0.0488,0.47905 -0.0488,0.71875 0,1.534 1.01314,2.541016 2.70117,2.541016 1.7845,0 2.84659,-1.054666 3.23243,-3.259766 l 1.92773,-11.457031 c 0.14469,-0.9588 0.19336,-1.918253 0.19336,-2.876953 0,-4.1226 -2.89295,-6.853516 -7.33008,-6.853516 z m 28.62696,5.367188 -2.21876,13.470703 c -1.39866,0.096 -2.50626,0.0957 -3.32617,0.0957 -4.24421,0 -6.17382,-0.957588 -6.17383,-3.929688 0,-5.2731 4.43607,-9.444919 11.71876,-9.636718 z"
       transform="translate(-7.6562102e-6,988.36515)"
       id="rect4768"
       inkscape:connector-curvature="0"
       sodipodi:nodetypes="sccscscssccssscssccssccccssscssccssccssccssccssccssc" />
  </g>
</svg>

<svg xmlns="http://www.w3.org/2000/svg" width="207.236" height="68.264" viewBox="0 0 194.28414 63.997057"><g fill="#333"><path d="M23.611.482v.002a23.72 23.72 0 0 0-5.01.489C10.328 2.693 3.48 9.083 1.249 17.17.605 19.5.484 20.48.486 23.348c.002 2.868.106 3.71.752 6.05 2.523 9.136 10.646 15.84 20.19 16.665 3.248.28 6.54-.165 9.617-1.25l-.426.232 9.693 16.478.024-.011a3.567 3.567 0 0 0 3.094 2c1.964.069 3.616-1.432 3.691-3.356l-3.562-.133 3.562.106a3.436 3.436 0 0 0-.58-2.008l.016-.01-9.631-16.37c.325-.235.647-.476.96-.727 3.531-2.838 6.297-6.984 7.553-11.323.739-2.738.666-5.168.666-5.168-.036-1.653-1.48-2.992-3.287-3.046-1.786-.051-3.514.616-3.785 3.082l-.066.521c-.39 3.778-2.5 7.706-5.46 10.16-3.09 2.565-6.767 3.806-10.823 3.656-2.718-.1-5.134-.794-7.372-2.117-3.771-2.23-6.491-5.955-7.398-10.13-1.234-5.682.788-11.678 5.162-15.297C15.742 9.145 18.6 7.982 22.1 7.67c4.032-.359 8.257 1.006 11.464 3.703l.674.566-3.71 3.49 14.808 2.71-2.98-14.221-3.002 2.945-.792-.683c-2.952-2.554-6.253-4.237-10.04-5.123a22.48 22.48 0 0 0-4.91-.575zm113.793 6.082c-1.929 0-3.135 1.103-3.472 3.165l-4.389 26.076c-.048.335-.098.671-.098.959 0 1.677.917 2.59 2.557 2.59 2.315 0 3.232-1.057 3.666-3.55l4.437-26.075c.049-.24.05-.48.05-.72 0-1.533-.966-2.445-2.75-2.445zm-50.74.143c-3.376 0-4.486.768-4.969 3.645L77.5 35.088c-.096.48-.098.86-.098 1.244 0 2.301 1.544 2.926 4.631 2.926h13.022c2.652 0 4.244-1.344 4.244-3.453 0-1.486-1.06-2.301-3.086-2.301H83.914l1.93-11.649h11.574c2.99 0 4.34-.91 4.34-3.115 0-1.63-.963-2.3-3.037-2.3H86.76l.722-4.124h11.432c3.039 0 4.533-1.008 4.533-3.117 0-1.821-1.013-2.492-3.183-2.492h-13.6zm27.035 0c-3.376 0-4.486.768-4.969 3.645l-4.341 25.453c-.049.335-.096.624-.096.912 0 1.726.964 2.637 2.748 2.637 2.122 0 3.04-1.152 3.475-3.55l2.363-13.949h9.451c2.99 0 4.39-.91 4.39-3.115 0-1.63-1.013-2.3-3.087-2.3h-9.838l.723-4.124h9.548c3.039 0 4.582-1.008 4.582-3.117 0-1.821-1.01-2.492-3.181-2.492h-11.768z"/><path style="isolation:auto;mix-blend-mode:normal;marker:none" d="M191.68 5.893c-1.737 0-2.893 1.006-3.23 2.828l-1.159 6.424h-.387c-4.582 0-8.296.864-11.045 2.59-4.63 2.876-7.474 7.86-7.474 12.75 0 3.115 1.253 5.705 3.568 7.286 1.785 1.199 4.535 1.487 8.442 1.487h6.125c1.736 0 2.748-.96 3.085-2.877l4.631-27.42c.049-.288.047-.528.047-.768 0-1.486-.915-2.3-2.603-2.3zM74.004 14.857c-2.17 0-4.004.911-5.547 2.733v-.287c0-1.726-.771-2.303-2.17-2.303-1.93 0-2.942.912-3.28 3.021l-2.99 18.073a4.35 4.35 0 0 0-.048.765c0 1.582.917 2.541 2.556 2.541 1.833 0 2.845-1.101 3.23-3.306l1.593-9.205c.675-3.98 1.11-5.848 4.293-6.184 1.205-.144 2.652.145 3.955-.67.916-.575 1.447-1.487 1.447-2.59 0-1.725-1.013-2.588-3.04-2.588zm83.79.05c-2.459 0-4.775.958-7.187 2.827.049-.191.05-.383.05-.527 0-1.438-.916-2.254-2.46-2.254-2.074 0-3.137.911-3.474 3.068l-3.037 18.073a4.353 4.353 0 0 0-.05.765c0 1.582.964 2.541 2.604 2.541 1.833 0 2.847-1.101 3.233-3.306l1.687-9.875c.675-3.931 3.04-6.184 6.367-6.184 2.364 0 3.52 1.103 3.52 3.26 0 .431-.047 1.245-.24 2.348l-1.688 10.45c-.048.24-.049.48-.049.72 0 1.534 1.013 2.54 2.702 2.54 1.784 0 2.846-1.054 3.232-3.26l1.928-11.456c.144-.96.193-1.919.193-2.877 0-4.123-2.893-6.854-7.33-6.854zm28.628 5.366l-2.219 13.471c-1.399.096-2.506.096-3.326.096-4.244 0-6.174-.958-6.174-3.93 0-5.273 4.436-9.445 11.719-9.637z" color="#bebebe" overflow="visible"/></g></svg>
